X: 654
T: Bartek i cietrzew
C: Stanis?aw Moniuszko
L: 1/8
M: 2/4
N: Derived from pl-wtm--r-246-m_moniuszko-stanislaw--bartek-i-cietrzew.krn
V: 1 clef=treble
V: 2 clef=treble
V: 3 clef=bass
K: E
[V:1] G G/A/ G F | 
[V:2] GG/A/ GF & EEED | 
[V:3] B,B,B,A, & E,E,E,E, | 
[V:1] G G/A< B A/ | 
[V:2] GG/A< BA/ & EEDD | 
[V:3] G,B,F,B,- & E,E,E,E, | 
[V:1] G G/A/ G F | 
[V:2] G G/A/ GF & E EED | 
[V:3] B,B,B,B, & E,E,E,E, | 
[V:1] G G/A< B A/ | 
[V:2] GG/A< BA/ & EEDD | 
[V:3] G,B,F,B, & E,E,E,E, | 
[V:1] G G/^A/ G F | 
[V:2] GG/^A/ GF & EEEF | 
[V:3] B,B,B,B, & E,E,E,^D, | 
[V:1] G ^A B3/ F/ | 
[V:2] G^A BF & EEDD | 
[V:3] B,CB,B, & C,F,B,,B, | 
[V:1] G G/^A/ G F | 
[V:2] GG/^A/ GF & EE EF | 
[V:3] B,B,B,B, & E,E,E,D, | 
[V:1] G ^A B3/ B/ | 
[V:2] [EF][EF] FB & x2!accent!D2 | 
[V:3] B,^A,B,2 & C,F,B,,2 | 
[V:1] !accent!c2B ^A | 
[V:2] !accent![G2c2e2][FBd][F^Ac] | 
[V:3] C,2F,F,, | 
[V:1] B!fermata!F2B | 
[V:2] d/c/!fermata![B2F2]B & Fx2x | 
[V:3] B,,!fermata![B,2D2]z | 
[V:1] !accent!c2B =A | 
[V:2] !accent![C2F2A2][B,EG][B,DF] | 
[V:3] D,,2B,,B,,, | 
[V:1] G/F/!fermata!E2E/ !fermata!z/ |]  
[V:2] [B,EG]!fermata![B,3E3] |]  
[V:3] E,,!fermata![E,3G,3] |]  

